symbols/fr/TIV-distance-80-sign.svg

<?xml version="1.0" encoding="UTF-8" standalone="no"?>
<svg
   width="16"
   height="16"
   viewBox="0 0 16 16"
   version="1.1"
   id="svg767"
   sodipodi:docname="TIV-distance-80-sign.svg"
   inkscape:version="1.2.2 (b0a8486541, 2022-12-01)"
   xmlns:inkscape="http://www.inkscape.org/namespaces/inkscape"
   xmlns:sodipodi="http://sodipodi.sourceforge.net/DTD/sodipodi-0.dtd"
   xmlns="http://www.w3.org/2000/svg"
   xmlns:svg="http://www.w3.org/2000/svg">
  <defs
     id="defs771" />
  <sodipodi:namedview
     id="namedview769"
     pagecolor="#ffffff"
     bordercolor="#666666"
     borderopacity="1.0"
     inkscape:showpageshadow="2"
     inkscape:pageopacity="0.0"
     inkscape:pagecheckerboard="0"
     inkscape:deskcolor="#d1d1d1"
     showgrid="false"
     inkscape:zoom="18.592801"
     inkscape:cx="12.182134"
     inkscape:cy="15.301621"
     inkscape:window-width="1920"
     inkscape:window-height="1008"
     inkscape:window-x="0"
     inkscape:window-y="0"
     inkscape:window-maximized="1"
     inkscape:current-layer="svg767" />
  <path
     fill-rule="nonzero"
     fill="#ffffff"
     fill-opacity="1"
     d="M 0,0 H 16 V 16 H 0 Z m 0,0"
     id="path743" />
  <path
     fill-rule="nonzero"
     fill="#000000"
     fill-opacity="1"
     d="M 0.160156,0.160156 H 15.839844 V 15.839844 H 0.160156 Z m 0,0"
     id="path745" />
  <path
     fill-rule="nonzero"
     fill="#ffffff"
     fill-opacity="1"
     d="M 1.121094,1.121094 H 14.878906 V 14.878906 H 1.121094 Z m 0,0"
     id="path747" />
  <path
     fill-rule="nonzero"
     fill="#000000"
     fill-opacity="1"
     d="m 4.539062,9.292969 c 0,0.320312 0.082032,0.566406 0.246094,0.738281 0.164063,0.175781 0.390625,0.265625 0.683594,0.265625 0.289062,0 0.515625,-0.08984 0.679688,-0.265625 0.164062,-0.171875 0.25,-0.417969 0.25,-0.738281 C 6.398438,8.964844 6.3125,8.714844 6.144531,8.546875 5.976562,8.375 5.75,8.289062 5.46875,8.289062 c -0.285156,0 -0.511719,0.085938 -0.679688,0.257813 -0.167968,0.167969 -0.25,0.417969 -0.25,0.746094 z M 3.222656,9.378906 c 0,-0.363281 0.082032,-0.6875 0.246094,-0.984375 C 3.632812,8.101562 3.875,7.882812 4.191406,7.734375 3.878906,7.527344 3.675781,7.300781 3.582031,7.058594 3.488281,6.816406 3.445312,6.59375 3.445312,6.382812 c 0,-0.46875 0.175782,-0.871093 0.527344,-1.199218 C 4.324219,4.851562 4.824219,4.6875 5.46875,4.6875 c 0.640625,0 1.140625,0.164062 1.492188,0.496094 0.351562,0.328125 0.53125,0.730468 0.53125,1.199218 0,0.210938 -0.046876,0.433594 -0.140626,0.675782 C 7.257812,7.300781 7.054688,7.511719 6.742188,7.6875 7.0625,7.867188 7.300781,8.101562 7.460938,8.394531 c 0.160156,0.296875 0.238281,0.621094 0.238281,0.984375 0,0.542969 -0.199219,1.003906 -0.601563,1.386719 -0.402344,0.378906 -0.964844,0.570313 -1.683594,0.570313 -0.722656,0 -1.265624,-0.191407 -1.636718,-0.570313 C 3.40625,10.382812 3.222656,9.921875 3.222656,9.378906 Z M 4.652344,6.523438 c 0,0.234374 0.074218,0.425781 0.214844,0.574218 0.144531,0.148438 0.34375,0.222656 0.601562,0.222656 0.257812,0 0.457031,-0.074218 0.597656,-0.222656 C 6.207031,6.949219 6.277344,6.757812 6.277344,6.523438 6.277344,6.269531 6.207031,6.070312 6.066406,5.925781 5.925781,5.78125 5.726562,5.710938 5.46875,5.710938 5.210938,5.710938 5.011719,5.78125 4.867188,5.925781 4.726562,6.070312 4.652344,6.269531 4.652344,6.523438 Z M 9.625,8.003906 c 0,0.742188 0.0625,1.308594 0.183594,1.703125 0.121094,0.390625 0.371094,0.589844 0.746094,0.589844 0.378906,0 0.625,-0.199219 0.742187,-0.589844 0.117187,-0.394531 0.175781,-0.960937 0.175781,-1.703125 0,-0.777344 -0.05859,-1.351562 -0.175781,-1.726562 C 11.179688,5.90625 10.933594,5.71875 10.554688,5.71875 c -0.375,0 -0.625,0.1875 -0.746094,0.558594 C 9.6875,6.652344 9.625,7.226562 9.625,8.003906 Z m 0.929688,-3.332031 c 0.820312,0 1.398437,0.289063 1.726562,0.867187 0.332031,0.578126 0.496094,1.402344 0.496094,2.464844 0,1.066406 -0.164063,1.886719 -0.496094,2.460938 -0.328125,0.574218 -0.90625,0.863281 -1.726562,0.863281 -0.820313,0 -1.398438,-0.289063 -1.726563,-0.863281 C 8.496094,9.890625 8.332031,9.070312 8.332031,8.003906 c 0,-1.0625 0.164063,-1.886718 0.496094,-2.464844 C 9.15625,4.960938 9.734375,4.671875 10.554688,4.671875 Z M 2.980469,4.152344"
     id="path765" />
</svg>

<?xml version="1.0" encoding="UTF-8"?>
<svg xmlns="http://www.w3.org/2000/svg" xmlns:xlink="http://www.w3.org/1999/xlink" width="16" height="16" viewBox="0 0 16 16">
<rect x="-1.6" y="-1.6" width="19.2" height="19.2" fill="rgb(100%, 100%, 100%)" fill-opacity="1"/>
<path fill-rule="nonzero" fill="rgb(0%, 0%, 0%)" fill-opacity="1" d="M 0.160156 0.160156 L 15.839844 0.160156 L 15.839844 15.839844 L 0.160156 15.839844 Z M 0.160156 0.160156 "/>
<path fill-rule="nonzero" fill="rgb(100%, 100%, 100%)" fill-opacity="1" d="M 1.121094 1.121094 L 14.878906 1.121094 L 14.878906 14.878906 L 1.121094 14.878906 Z M 1.121094 1.121094 "/>
<path fill-rule="nonzero" fill="rgb(0%, 0%, 0%)" fill-opacity="1" d="M 4.539062 9.292969 C 4.539062 9.613281 4.621094 9.859375 4.785156 10.03125 C 4.949219 10.207031 5.175781 10.296875 5.46875 10.296875 C 5.757812 10.296875 5.984375 10.207031 6.148438 10.03125 C 6.3125 9.859375 6.398438 9.613281 6.398438 9.292969 C 6.398438 8.964844 6.3125 8.714844 6.144531 8.546875 C 5.976562 8.375 5.75 8.289062 5.46875 8.289062 C 5.183594 8.289062 4.957031 8.375 4.789062 8.546875 C 4.621094 8.714844 4.539062 8.964844 4.539062 9.292969 Z M 3.222656 9.378906 C 3.222656 9.015625 3.304688 8.691406 3.46875 8.394531 C 3.632812 8.101562 3.875 7.882812 4.191406 7.734375 C 3.878906 7.527344 3.675781 7.300781 3.582031 7.058594 C 3.488281 6.816406 3.445312 6.59375 3.445312 6.382812 C 3.445312 5.914062 3.621094 5.511719 3.972656 5.183594 C 4.324219 4.851562 4.824219 4.6875 5.46875 4.6875 C 6.109375 4.6875 6.609375 4.851562 6.960938 5.183594 C 7.3125 5.511719 7.492188 5.914062 7.492188 6.382812 C 7.492188 6.59375 7.445312 6.816406 7.351562 7.058594 C 7.257812 7.300781 7.054688 7.511719 6.742188 7.6875 C 7.0625 7.867188 7.300781 8.101562 7.460938 8.394531 C 7.621094 8.691406 7.699219 9.015625 7.699219 9.378906 C 7.699219 9.921875 7.5 10.382812 7.097656 10.765625 C 6.695312 11.144531 6.132812 11.335938 5.414062 11.335938 C 4.691406 11.335938 4.148438 11.144531 3.777344 10.765625 C 3.40625 10.382812 3.222656 9.921875 3.222656 9.378906 Z M 4.652344 6.523438 C 4.652344 6.757812 4.726562 6.949219 4.867188 7.097656 C 5.011719 7.246094 5.210938 7.320312 5.46875 7.320312 C 5.726562 7.320312 5.925781 7.246094 6.066406 7.097656 C 6.207031 6.949219 6.277344 6.757812 6.277344 6.523438 C 6.277344 6.269531 6.207031 6.070312 6.066406 5.925781 C 5.925781 5.78125 5.726562 5.710938 5.46875 5.710938 C 5.210938 5.710938 5.011719 5.78125 4.867188 5.925781 C 4.726562 6.070312 4.652344 6.269531 4.652344 6.523438 Z M 9.625 8.003906 C 9.625 8.746094 9.6875 9.3125 9.808594 9.707031 C 9.929688 10.097656 10.179688 10.296875 10.554688 10.296875 C 10.933594 10.296875 11.179688 10.097656 11.296875 9.707031 C 11.414062 9.3125 11.472656 8.746094 11.472656 8.003906 C 11.472656 7.226562 11.414062 6.652344 11.296875 6.277344 C 11.179688 5.90625 10.933594 5.71875 10.554688 5.71875 C 10.179688 5.71875 9.929688 5.90625 9.808594 6.277344 C 9.6875 6.652344 9.625 7.226562 9.625 8.003906 Z M 10.554688 4.671875 C 11.375 4.671875 11.953125 4.960938 12.28125 5.539062 C 12.613281 6.117188 12.777344 6.941406 12.777344 8.003906 C 12.777344 9.070312 12.613281 9.890625 12.28125 10.464844 C 11.953125 11.039062 11.375 11.328125 10.554688 11.328125 C 9.734375 11.328125 9.15625 11.039062 8.828125 10.464844 C 8.496094 9.890625 8.332031 9.070312 8.332031 8.003906 C 8.332031 6.941406 8.496094 6.117188 8.828125 5.539062 C 9.15625 4.960938 9.734375 4.671875 10.554688 4.671875 Z M 2.980469 4.152344 "/>
</svg>
